X: 23700
T: Lisdoonvarna, The
R: reel
M: 4/4
K: Gmajor
DEGA B2AB|cBAc BAGE|DEGA Bdge|1 dBAB ~G3E:|2 dBAB ~G3A||
BddB c2Bc|dBdB cA~A2|BddB c2ge|1 dBAB ~G3A:|2 dBAB ~G3E||

